X:1
T: Mrs. Wright of Laton
C:Niel Gow
R:Strathspey
Q: 128
K:Em
M:4/4
L:1/16
|:e2|BE3 B3A BE3 Be3|dD3 BAGF dD3 BAGF|BE3 B3A BE3 Be3|dB3 d3F EE3 E2e2|
BE3 B3A BE3 Be3|dD3 BAGF dD3 BAGF|BE3 B3A BE3 Be3|dB3 d3F EE3 E2B2|
e3B e3g B3e g3e|d3f A3d FD3 A3F|e3B e3g B3e g3e|dB3 d3F EE3 E2B2|
e3B e3g B3e g3e|d3f A3d FD3 A3F|G3B E3B eB3 g3e|dB3 d3F EE3 E2:|
